svgs/sharp-thin/network-wired.svg

<svg xmlns="http://www.w3.org/2000/svg" viewBox="0 0 640 512"><!--! Font Awesome Pro 6.6.0 by @fontawesome - https://fontawesome.com License - https://fontawesome.com/license (Commercial License) Copyright 2024 Fonticons, Inc. --><path d="M432 16l0 160-224 0 0-160 224 0zM208 0L192 0l0 16 0 160 0 16 16 0 104 0 0 56L8 248l-8 0 0 16 8 0 144 0 0 56L48 320l-16 0 0 16 0 160 0 16 16 0 224 0 16 0 0-16 0-160 0-16-16 0-104 0 0-56 304 0 0 56-104 0-16 0 0 16 0 160 0 16 16 0 224 0 16 0 0-16 0-160 0-16-16 0-104 0 0-56 144 0 8 0 0-16-8 0-304 0 0-56 104 0 16 0 0-16 0-160 0-16L432 0 208 0zM48 336l224 0 0 160L48 496l0-160zm544 0l0 160-224 0 0-160 224 0z"/></svg>

<svg xmlns="http://www.w3.org/2000/svg" viewBox="0 0 640 512"><!--! Font Awesome Pro 6.5.2 by @fontawesome - https://fontawesome.com License - https://fontawesome.com/license (Commercial License) Copyright 2024 Fonticons, Inc. --><path d="M432 16V176H208V16H432zM208 0H192V16 176v16h16H312v56H8 0v16H8 152v56H48 32v16V496v16H48 272h16V496 336 320H272 168V264H472v56H368 352v16V496v16h16H592h16V496 336 320H592 488V264H632h8V248h-8H328V192H432h16V176 16 0H432 208zM48 336H272V496H48V336zm544 0V496H368V336H592z"/></svg>
